EdiMM/images/3layout.svg

<svg xmlns="http://www.w3.org/2000/svg" width="24" height="24" viewBox="0 0 24 24"><path fill="none" d="M0 0h24v24H0V0z"/><path d="M3 5v14c0 1.1.9 2 2 2h14c1.1 0 2-.9 2-2V5c0-1.1-.9-2-2-2H5c-1.1 0-2 .9-2 2zm8 14H6c-.55 0-1-.45-1-1v-5h5c.55 0 1 .45 1 1v5zm-1-8H5V6c0-.55.45-1 1-1h5v5c0 .55-.45 1-1 1zm8 8h-5v-5c0-.55.45-1 1-1h5v5c0 .55-.45 1-1 1zm1-8h-5c-.55 0-1-.45-1-1V5h5c.55 0 1 .45 1 1v5z"/></svg>

<svg width="24" height="24" viewBox="0 0 24 24" fill="none" xmlns="http://www.w3.org/2000/svg">
<path d="M3 5V19C3 20.1 3.9 21 5 21H19C20.1 21 21 20.1 21 19V5C21 3.9 20.1 3 19 3H5C3.9 3 3 3.9 3 5ZM11 19H6C5.45 19 5 18.55 5 18V13H10C10.55 13 11 13.45 11 14V19ZM10 11H5V6C5 5.45 5.45 5 6 5H11V10C11 10.55 10.55 11 10 11ZM18 19H13V14C13 13.45 13.45 13 14 13H19V18C19 18.55 18.55 19 18 19ZM19 11H14C13.45 11 13 10.55 13 10V5H18C18.55 5 19 5.45 19 6V11Z" fill="white"/>
</svg>
